icons/night/docker.svg

<svg width="16" height="16" viewBox="0 0 16 16" fill="none" xmlns="http://www.w3.org/2000/svg">
<path d="M7.01001 4H8.51001V5.5H7.01001V4ZM5.01001 4H6.51001V5.5H5.01001V4ZM5.01001 6H6.51001V7.5H5.01001V6ZM7.01001 6H8.51001V7.5H7.01001V6ZM9.01001 6H10.51V7.5H9.01001V6ZM3.01001 6H4.51001V7.5H3.01001V6Z" fill="#0DB9D7"/>
<path d="M4.76001 9.5C4.95892 9.5 5.14968 9.57902 5.29034 9.71967C5.43099 9.86032 5.51001 10.0511 5.51001 10.25C5.51001 10.4489 5.43099 10.6397 5.29034 10.7803C5.14968 10.921 4.95892 11 4.76001 11C4.56353 11.0002 4.37463 10.9242 4.23294 10.7881C4.09124 10.652 4.00776 10.4663 4.00001 10.27C4.00768 10.0754 4.08976 9.89117 4.22932 9.75533C4.36888 9.61949 4.55527 9.54241 4.75001 9.54M12.51 5C12.1472 5.29211 11.8977 5.7017 11.8046 6.15811C11.7115 6.61452 11.7806 7.08911 12 7.5C12 8 11 8 11 8H1.00001C1.00001 8 5.24521e-06 13.49 5.50001 13.5C7.09865 13.4764 8.65654 12.9921 9.98683 12.1052C11.3171 11.2184 12.3633 9.96659 13 8.5C13 8.5 15 8.5 15.5 7C15.1905 6.84367 14.8465 6.768 14.5 6.78C14.1554 6.78659 13.8155 6.86136 13.5 7C13.5 7 13.5 5.5 12.5 5" fill="#0DB9D7"/>
</svg>

<svg xmlns="http://www.w3.org/2000/svg" id="Calque_1" data-name="Calque 1" viewBox="0 0 16 16"><defs><style
    >.cls-1{fill:#0db9d7}</style></defs><path
    d="M7.01 4h1.5v1.5h-1.5zM5.01 4h1.5v1.5h-1.5zM5.01 6h1.5v1.5h-1.5zM7.01 6h1.5v1.5h-1.5zM9.01 6h1.5v1.5h-1.5zM3.01 6h1.5v1.5h-1.5z"
    class="cls-1"
  /><path
    d="M4.76 9.5a.75.75 0 0 1 0 1.5.76.76 0 0 1-.76-.73.76.76 0 0 1 .75-.73M12.51 5A2 2 0 0 0 12 7.5c0 .5-1 .5-1 .5H1s-1 5.49 4.5 5.5a8.31 8.31 0 0 0 7.5-5s2 0 2.5-1.5a2.06 2.06 0 0 0-1-.22 2.61 2.61 0 0 0-1 .22s0-1.5-1-2"
    class="cls-1"
  /></svg>
